lib/brands/logos/ajax.svg

<svg xmlns="http://www.w3.org/2000/svg" fill="none" aria-hidden="true" viewBox="0 0 183 66"><g id="AJAX"><g id="Vector"><path fill="#236BB3" fill-rule="evenodd" d="M74.3568 17.6656H82.6037L94.2565 49.1697H85.7894L83.8693 43.521H73.0033L71.0398 49.1697H62.705L74.3568 17.6656ZM74.8809 37.432H81.9502L78.5029 26.4012H78.4161L74.8809 37.432ZM100.023 40.8181C100.023 40.8181 100.971 43.1942 102.978 43.1942C104.854 43.1942 105.905 41.7135 105.905 38.668V17.6656H114.023V39.1981C114.023 46.2575 110.444 49.7887 103.114 49.8321C98.5073 49.8587 95.9317 46.9475 95.4016 45.4924L100.023 40.8181ZM125.493 17.6656H133.741L145.393 49.1697H136.927L135.007 43.521H124.142L122.177 49.1697H113.842L125.493 17.6656ZM126.017 37.432H133.085L129.638 26.4012H129.551L126.017 37.432ZM158.089 32.6225L147.921 17.6656H157.478L162.715 27.4614L168.256 17.6656H177.509L167.427 32.6225L178.425 49.1697H168.563L162.715 38.668L156.345 49.1697H147.005L158.089 32.6225Z" clip-rule="evenodd"/><path fill="#236BB3" fill-rule="evenodd" d="M18.5402 8.41121H47.5399L61.506 33.0835L47.0823 57.5968H18.9987L4.575 33.0835L18.5402 8.41121ZM18.8976 9.02426L5.2828 33.0775L19.3493 56.9838H46.7318L60.7982 33.0776L47.1824 9.02426H18.8976Z" clip-rule="evenodd"/><path fill="#236BB3" fill-rule="evenodd" d="M40.8447 44.5733H50.2408L33.4941 15.4602L16.4464 44.5733H25.8424L33.4941 39.517L40.8447 44.5733Z" clip-rule="evenodd"/></g></g></svg>

<svg xmlns="http://www.w3.org/2000/svg" fill="none" aria-hidden="true" viewBox="0 0 183 66"><path fill="#236BB3" fill-rule="evenodd" d="M74.357 17.666h8.247L94.257 49.17h-8.468l-1.92-5.649H73.003L71.04 49.17h-8.335l11.652-31.504Zm.524 19.766h7.07l-3.448-11.03h-.087l-3.535 11.03Zm25.142 3.386s.948 2.376 2.955 2.376c1.876 0 2.927-1.48 2.927-4.526V17.666h8.118v21.532c0 7.06-3.579 10.59-10.909 10.634-4.607.027-7.182-2.885-7.712-4.34l4.621-4.674Zm25.47-23.152h8.248l11.652 31.504h-8.466l-1.92-5.649h-10.865l-1.965 5.649h-8.335l11.651-31.504Zm.524 19.766h7.069l-3.448-11.03h-.087l-3.534 11.03Zm32.072-4.81-10.168-14.956h9.557l5.237 9.795 5.541-9.795h9.253l-10.082 14.957 10.998 16.547h-9.862l-5.848-10.502-6.37 10.502h-9.34l11.084-16.547ZM18.54 8.411h29l13.966 24.672-14.424 24.514H19L4.575 33.083 18.54 8.412Zm.358.613L5.283 33.077l14.066 23.907h27.383l14.066-23.907L47.182 9.024H18.898Z" clip-rule="evenodd"/><path fill="#236BB3" fill-rule="evenodd" d="M40.845 44.573h9.396L33.494 15.46 16.446 44.573h9.396l7.652-5.056 7.35 5.056Z" clip-rule="evenodd"/></svg>
